X:11
T:Blueberry Cake
M:C|
L:1/8
C: Paul Gitlitz 2002
R:Reel
B:Hunters and Gatherers
N:My wife offered this instead of blueberry pie I requested, for our wedding cake. 
D:"To Have and To Hold" available @ www.glitchless.net
K:C
"C"e2ee eeee|e2d2c4|e2ee e2ee|"Am"e2a2"G"g4|!
"C"e2e2-e2ee|e2d2c4|"C"eage "G7"d2B2|"C"c8:|! 
|:"C"c2Gc Ec2G|c2Gc Ec2G|c2Gc Ec2G|"Am"e2ae "G"gede|!
"C"c2Gc Ec2G|c2Gc Ec2G|"C"eage "G7"d2B2|"C"c8:|]
